X: 36
T:Dusty Miller, The
R:slip jig
D:Paul O'Shaughnessy: Stay Another While
Z:Devin McCabe
M:9/8
L:1/8
K:DMix
A/2B/2A A2G A2D|A/2B/2A A2G B2d|A/2B/2A A2G A2c|B2G G2A B2d:|
!|:A2D D/2D/2D A2D|A2D  D/2D/2D B2d|A2D  D/2D/2D A2c|B2G G2A B2d:|
